X:261
T: Die Winterrosen (27), S. 107
N: T0150
O: Luxemburg
S: Singendes Volk, Esch-Alzette 1937 posth.]
N: Blascheid, fff Magd von Kemp, 1902
R: Liebeslieder]
M: 2/4
L: 1/16
K: G
B2 | B2G2G2B2 | BAAAA2
G2 | G2G2F2E2 | E4D2
D2 | E2E2G2E2 | E2D2D2
D2 | G2A2B2G2 | A4G2

